X: 17816
T: Hop, Skip, Jump!
R: slide
M: 12/8
K: Edorian
|:F/E/|D2 F A2 d B2 A F2 E|DEF A2 d f3 fgf|
e2 d B2 d A2 F D2 E|FED A2 F E3 E2:|
|:f|g2 f edB AFA d2 e|f2 e ede f2 b b2 a|
g2 f edB AFA d2 e|fed BAF E3 E2:|

